build-source/logos/radiofranceinternational.default.svg

<svg xmlns="http://www.w3.org/2000/svg" width="141.06" height="141.06" viewBox="0 0 141.057 141.058" enable-background="new 0 0 141.057 141.058"><path fill="#e2001a" d="m0 0h141.06v141.06h-141.06z"/><g fill="#fff"><path d="m23.922 66.71h-.311v-15.06h-5.985v71.784h5.985v-40.974c0-13.11 6.492-25.77 19.612-26.575v-5.36c-10.09.541-16.426 7.131-19.301 16.186"/><path d="m88.62 51.663h34.791v71.77h-34.791v-71.77m34.791-10.561h-34.791v-23.477h34.791v23.477"/><path d="m62.57 44.05c0-9.532 1.377-16.708 12.563-16.708.881 0 1.809.042 2.701.129v-10.364c-1.443-.154-2.967-.262-4.633-.262-19.19 0-23.61 11.183-23.61 28.3v6.496 10.494 61.3h12.979v-61.3h15.264v-10.494h-15.264v-7.591"/></g></svg>

<?xml version="1.0" encoding="UTF-8"?>
<!-- Generator: Adobe Illustrator 17.0.0, SVG Export Plug-In . SVG Version: 6.00 Build 0)  -->
<!DOCTYPE svg PUBLIC "-//W3C//DTD SVG 1.1//EN" "http://www.w3.org/Graphics/SVG/1.1/DTD/svg11.dtd">
<svg version="1.1" id="Calque_1" xmlns="http://www.w3.org/2000/svg" xmlns:xlink="http://www.w3.org/1999/xlink" x="0px" y="0px" width="141.057px" height="141.058px" viewBox="0 0 141.057 141.058" enable-background="new 0 0 141.057 141.058" xml:space="preserve">
<rect x="0" y="0" fill="#E2001A" width="141.057" height="141.058"/>
<g>
	<path fill="#FFFFFF" d="M23.922,66.707h-0.311V51.646h-5.985v71.784h5.985V82.456c0-13.107,6.492-25.77,19.612-26.575v-5.36   C33.131,51.062,26.797,57.652,23.922,66.707"/>
	<path fill="#FFFFFF" d="M88.623,51.663h34.791v71.768H88.623V51.663z M123.414,41.102H88.623V17.625h34.791V41.102z"/>
	<path fill="#FFFFFF" d="M62.566,44.047c0-9.532,1.377-16.708,12.563-16.708c0.881,0,1.809,0.042,2.701,0.129V17.104   c-1.443-0.154-2.967-0.262-4.633-0.262c-19.189,0-23.61,11.183-23.61,28.301v6.496v10.494v61.297h12.979V62.132H77.83V51.638   H62.566V44.047z"/>
</g>
</svg>
